Icons/kov_theme_domo.svg

<svg viewBox="0 0 48 48" xmlns:xlink="http://www.w3.org/1999/xlink">
 <defs>
  <linearGradient id="0">
   <stop stop-opacity="0"/>
   <stop offset="1"/>
  </linearGradient>
  <linearGradient xlink:href="#0" id="1" gradientUnits="userSpaceOnUse" gradientTransform="translate(4e-7,-48)" y1="47" x2="0" y2="1"/>
  <clipPath id="2">
   <g transform="translate(0,-1004.3622)">
    <rect rx="4" y="1005.36" x="1" height="46" width="46" fill="#1890d0"/>
   </g>
  </clipPath>
  <clipPath id="3">
   <g transform="translate(0,-1004.3622)">
    <rect rx="4" y="1005.36" x="1" height="46" width="46" fill="#1890d0"/>
   </g>
  </clipPath>
  <path id="4" d="M 20 24 C 20 25.105469 19.105469 26 18 26 C 16.894531 26 16 25.105469 16 24 C 16 22.894531 16.894531 22 18 22 C 19.105469 22 20 22.894531 20 24 Z M 20 24 "/>
  <path id="5" d="M 32 24 C 32 26.210938 30.210938 28 28 28 C 25.789062 28 24 26.210938 24 24 C 24 21.789062 25.789062 20 28 20 C 30.210938 20 32 21.789062 32 24 Z M 32 24 "/>
 </defs>
 <g>
  <g transform="translate(0,-1004.3622)">
   <path d="m 5,1006.3622 c -2.216,0 -4,1.784 -4,4 l 0,37.25 c 0,2.216 1.784,4 4,4 l 38,0 c 2.216,0 4,-1.784 4,-4 l 0,-37.25 c 0,-2.216 -1.784,-4 -4,-4 l -38,0 z m -4,41.5 0,0.5 c 0,2.216 1.784,4 4,4 l 38,0 c 2.216,0 4,-1.784 4,-4 l 0,-0.5 c 0,2.216 -1.784,4 -4,4 l -38,0 c -2.216,0 -4,-1.784 -4,-4 z" opacity="0.02"/>
   <path d="m 1,1047.6122 0,0.25 c 0,2.216 1.784,4 4,4 l 38,0 c 2.216,0 4,-1.784 4,-4 l 0,-0.25 c 0,2.216 -1.784,4 -4,4 l -38,0 c -2.216,0 -4,-1.784 -4,-4 z" opacity="0.05"/>
   <rect width="46" height="46" x="1" y="1005.61" rx="4" opacity="0.1"/>
  </g>
 </g>
 <g>
  <g transform="translate(0,-1004.3622)">
   <rect rx="4" y="1005.36" x="1" height="46" width="46" fill="#167c99"/>
  </g>
 </g>
 <g>
  <rect transform="scale(1,-1)" width="46" height="46" x="1" y="-46.998" rx="4" opacity="0.1" fill="url(#1)"/>
 </g>
 <g>
  <g clip-path="url(#2)">
   <g opacity="0.1">
    <g>
     <path d="M 26 16 C 26 17.105469 25.105469 18 24 18 C 22.894531 18 22 17.105469 22 16 C 22 14.894531 22.894531 14 24 14 C 25.105469 14 26 14.894531 26 16 Z M 26 16 "/>
     <path d="M 39 24 C 39 26.761719 36.761719 29 34 29 C 31.238281 29 29 26.761719 29 24 C 29 21.238281 31.238281 19 34 19 C 36.761719 19 39 21.238281 39 24 Z M 39 24 "/>
     <path d="M 19 24 C 19 26.761719 16.761719 29 14 29 C 11.238281 29 9 26.761719 9 24 C 9 21.238281 11.238281 19 14 19 C 16.761719 19 19 21.238281 19 24 Z M 19 24 "/>
     <path d="M 15.542969 16 L 32.457031 16 C 34.414062 16 36 17.589844 36 19.542969 L 36 28.460938 C 36 30.417969 34.414062 32.003906 32.457031 32.003906 L 15.542969 32.003906 C 13.585938 32.003906 12 30.417969 12 28.460938 L 12 19.542969 C 12 17.589844 13.585938 16 15.542969 16 Z M 15.542969 16 "/>
     <use stroke="#01010a" stroke-width="2" xlink:href="#4"/>
     <use xlink:href="#4"/>
     <path d="M 32 24 C 32 26.210938 30.210938 28 28 28 C 25.789062 28 24 26.210938 24 24 C 24 21.789062 25.789062 20 28 20 C 30.210938 20 32 21.789062 32 24 Z M 32 24 " stroke="#001929" stroke-width="2"/>
     <use xlink:href="#5"/>
    </g>
   </g>
  </g>
 </g>
 <g>
  <g clip-path="url(#3)">
   <g transform="translate(0,-1)">
    <g>
     <path d="M 26 16 C 26 17.105469 25.105469 18 24 18 C 22.894531 18 22 17.105469 22 16 C 22 14.894531 22.894531 14 24 14 C 25.105469 14 26 14.894531 26 16 Z M 26 16 " fill="#4c4c4c"/>
     <path d="M 39 24 C 39 26.761719 36.761719 29 34 29 C 31.238281 29 29 26.761719 29 24 C 29 21.238281 31.238281 19 34 19 C 36.761719 19 39 21.238281 39 24 Z M 39 24 " fill="#4c4c4c"/>
     <path d="M 19 24 C 19 26.761719 16.761719 29 14 29 C 11.238281 29 9 26.761719 9 24 C 9 21.238281 11.238281 19 14 19 C 16.761719 19 19 21.238281 19 24 Z M 19 24 " fill="#4c4c4c"/>
     <path d="M 15.542969 16 L 32.457031 16 C 34.414062 16 36 17.589844 36 19.542969 L 36 28.460938 C 36 30.417969 34.414062 32.003906 32.457031 32.003906 L 15.542969 32.003906 C 13.585938 32.003906 12 30.417969 12 28.460938 L 12 19.542969 C 12 17.589844 13.585938 16 15.542969 16 Z M 15.542969 16 " fill="#dedede"/>
     <use fill="none" stroke="#01010a" stroke-width="2" xlink:href="#4"/>
     <use fill="#ffcf00" xlink:href="#4"/>
     <use fill="none" stroke="#001929" stroke-width="2" xlink:href="#5"/>
     <use fill="#ffcf00" xlink:href="#5"/>
    </g>
   </g>
  </g>
 </g>
 <g>
  <g transform="translate(0,-1004.3622)">
   <path d="m 1,1043.3622 0,4 c 0,2.216 1.784,4 4,4 l 38,0 c 2.216,0 4,-1.784 4,-4 l 0,-4 c 0,2.216 -1.784,4 -4,4 l -38,0 c -2.216,0 -4,-1.784 -4,-4 z" opacity="0.1"/>
  </g>
 </g>
</svg>

<svg viewBox="0 0 48 48" xmlns:xlink="http://www.w3.org/1999/xlink"><defs><linearGradient id="linearGradient3764" x1="1" x2="47" gradientUnits="userSpaceOnUse" gradientTransform="translate(-48.000001,0.00221467)"><stop stop-color="#146e88" stop-opacity="1"/><stop offset="1" stop-color="#167c99" stop-opacity="1"/></linearGradient><clipPath id="clipPath-624447103"><g transform="translate(0,-1004.3622)"><rect rx="4" y="1005.36" x="1" height="46" width="46" fill="#1890d0"/></g></clipPath><clipPath id="clipPath-646927394"><g transform="translate(0,-1004.3622)"><rect rx="4" y="1005.36" x="1" height="46" width="46" fill="#1890d0"/></g></clipPath><path id="SVGCleanerId_0" d="m 20 24 c 0 1.105 -0.895 2 -2 2 c -1.105 0 -2 -0.895 -2 -2 c 0 -1.105 0.895 -2 2 -2 c 1.105 0 2 0.895 2 2 m 0 0"/><path id="SVGCleanerId_1" d="m 32 24 c 0 2.211 -1.789 4 -4 4 c -2.211 0 -4 -1.789 -4 -4 c 0 -2.211 1.789 -4 4 -4 c 2.211 0 4 1.789 4 4 m 0 0"/></defs><g><path d="m 1 43 l 0 0.25 c 0 2.216 1.784 4 4 4 l 38 0 c 2.216 0 4 -1.784 4 -4 l 0 -0.25 c 0 2.216 -1.784 4 -4 4 l -38 0 c -2.216 0 -4 -1.784 -4 -4 z m 0 0.5 l 0 0.5 c 0 2.216 1.784 4 4 4 l 38 0 c 2.216 0 4 -1.784 4 -4 l 0 -0.5 c 0 2.216 -1.784 4 -4 4 l -38 0 c -2.216 0 -4 -1.784 -4 -4 z" opacity="0.02"/><path d="m 1 43.25 l 0 0.25 c 0 2.216 1.784 4 4 4 l 38 0 c 2.216 0 4 -1.784 4 -4 l 0 -0.25 c 0 2.216 -1.784 4 -4 4 l -38 0 c -2.216 0 -4 -1.784 -4 -4 z" opacity="0.05"/><path d="m 1 43 l 0 0.25 c 0 2.216 1.784 4 4 4 l 38 0 c 2.216 0 4 -1.784 4 -4 l 0 -0.25 c 0 2.216 -1.784 4 -4 4 l -38 0 c -2.216 0 -4 -1.784 -4 -4 z" opacity="0.1"/></g><g><rect width="46" height="46" x="-47" y="1" rx="4" transform="matrix(0,-1,1,0,0,0)" fill="url(#linearGradient3764)" fill-opacity="1"/></g><g><g clip-path="url(#clipPath-624447103)"><g opacity="0.1"><!-- color: #167c99 --><g><path d="m 26 16 c 0 1.105 -0.895 2 -2 2 c -1.105 0 -2 -0.895 -2 -2 c 0 -1.105 0.895 -2 2 -2 c 1.105 0 2 0.895 2 2 m 0 0" fill="#000"/><path d="m 39 24 c 0 2.762 -2.238 5 -5 5 c -2.762 0 -5 -2.238 -5 -5 c 0 -2.762 2.238 -5 5 -5 c 2.762 0 5 2.238 5 5 m 0 0" fill="#000"/><path d="m 19 24 c 0 2.762 -2.238 5 -5 5 c -2.762 0 -5 -2.238 -5 -5 c 0 -2.762 2.238 -5 5 -5 c 2.762 0 5 2.238 5 5 m 0 0" fill="#000"/><path d="m 15.543 16 l 16.914 0 c 1.957 0 3.543 1.59 3.543 3.543 l 0 8.918 c 0 1.957 -1.586 3.543 -3.543 3.543 l -16.914 0 c -1.957 0 -3.543 -1.586 -3.543 -3.543 l 0 -8.918 c 0 -1.953 1.586 -3.543 3.543 -3.543 m 0 0" fill="#000"/><use stroke="#01010a" stroke-width="2" fill="#000" xlink:href="#SVGCleanerId_0"/><use fill="#000" xlink:href="#SVGCleanerId_0"/><path d="m 32 24 c 0 2.211 -1.789 4 -4 4 c -2.211 0 -4 -1.789 -4 -4 c 0 -2.211 1.789 -4 4 -4 c 2.211 0 4 1.789 4 4 m 0 0" stroke="#001929" stroke-width="2" fill="#000"/><use fill="#000" xlink:href="#SVGCleanerId_1"/></g></g></g></g><g><g clip-path="url(#clipPath-646927394)"><g transform="translate(0,-1)"><!-- color: #167c99 --><g><path d="m 26 16 c 0 1.105 -0.895 2 -2 2 c -1.105 0 -2 -0.895 -2 -2 c 0 -1.105 0.895 -2 2 -2 c 1.105 0 2 0.895 2 2 m 0 0" fill="#4c4c4c"/><path d="m 39 24 c 0 2.762 -2.238 5 -5 5 c -2.762 0 -5 -2.238 -5 -5 c 0 -2.762 2.238 -5 5 -5 c 2.762 0 5 2.238 5 5 m 0 0" fill="#4c4c4c"/><path d="m 19 24 c 0 2.762 -2.238 5 -5 5 c -2.762 0 -5 -2.238 -5 -5 c 0 -2.762 2.238 -5 5 -5 c 2.762 0 5 2.238 5 5 m 0 0" fill="#4c4c4c"/><path d="m 15.543 16 l 16.914 0 c 1.957 0 3.543 1.59 3.543 3.543 l 0 8.918 c 0 1.957 -1.586 3.543 -3.543 3.543 l -16.914 0 c -1.957 0 -3.543 -1.586 -3.543 -3.543 l 0 -8.918 c 0 -1.953 1.586 -3.543 3.543 -3.543 m 0 0" fill="#dedede"/><use fill="none" stroke="#01010a" stroke-width="2" xlink:href="#SVGCleanerId_0"/><use fill="#ffcf00" xlink:href="#SVGCleanerId_0"/><use fill="none" stroke="#001929" stroke-width="2" xlink:href="#SVGCleanerId_1"/><use fill="#ffcf00" xlink:href="#SVGCleanerId_1"/></g></g></g></g><g><g transform="translate(0,-1004.3622)"><path d="m 1 1043.36 0 4 c 0 2.216 1.784 4 4 4 l 38 0 c 2.216 0 4 -1.784 4 -4 l 0 -4 c 0 2.216 -1.784 4 -4 4 l -38 0 c -2.216 0 -4 -1.784 -4 -4 z" opacity="0.1"/></g></g></svg>
